X:1
T:Il estoit une fillette
T:Il estoit une fillette
T:Cornelius Canis
C:Cornelius Canis
%%score [ 1 [ 2 3 ] 4 ]
L:1/8
Q:1/4=84
M:2/2
K:C
V:1 treble nm="Superius" snm="S"
V:2 treble-8 nm="Tenor 1" snm="T 1"
V:3 treble-8 nm="Tenor 2" snm="T 2"
V:4 bass nm="Bass" snm="B"
V:1
 z8 | G3 G A2 c2 | G2 B2 A4 | G4 z4 | z4 z2 GG | A2 c3 G B2 | A2 GA Bc d2- | dc c4 B2 | c4 z4 | %9
w: |Il es- toit u-|ne fil- let-|te,|il es-|toit u- ne fil-|let- * * * * *||te|
 z4 z2 c2 | B2 BG A3 B | c2 A2 G4 | z8 | z2 c2 B2 BG | A3 B c2 A2 | G4 z2 G2- | GGcB cd e2- | %17
w: qui|vou loit sca- voir le|jeu d'a- mours,||qui vou- loit sca-|voir le jeu d'a-|mours, ung|_ jour qu'el- l'es- toit seul- let-|
 ed c4 B2 | c4 z4 | G3 G cBcd | e2 c2 cB cd | e6 dc | B2 cc B2 A2 | G2 d2 c2 B2 | A4 G4 | z8 | %26
w: |te,|ung jour qu'el- l'es- toit seul-|let- * * * * *||te, je luy en a-|pris deux ou _|trois tours,||
 G2 GA B2 c2 | c2 B2 c4 | B2 Bc d2 e2 | e2 d2 e2 c2- | cB A4 G2 | A2 z A A2 A2 | E2 e2 e2 e2 | %33
w: a- pres a- voir sen-|ti le gout,|el- le m'a dict en|soubz- ri- * *||ant, le pre- mier|coup, le pre- mier|
 d3 c B2 A2 | G8- | G4 z4 | z2 GA BcAB | c2 G2 z4 | GABc d2 c2- | c2 B2 c4 | z4 z2 GA | %41
w: coup me sem- ble|lourt,|_|mais la fin me sem- ble|fri- ant,|mais la fin me sem- ble|_ fri- ant,|mais la|
 BcAB c2 G2 | z4 GABc | d2 c4 B2 | c8 |] %45
w: fin me sem- ble fri- ant,|mais la fin me|sem- ble fri-|ant.|
V:2
 d3 d e2 g2 | c2 e2 d2 cd | ef g4 f2 | g8 | z4 z2 dd | e2 f2 e2 d2 | cdef g4 | a2 f2 g4 | %8
w: Il es- toit u-|ne fil- let- * *||te,|il es-|toit u- ne fil-|let- * * * *||
 e4 z2 g2 | f2 fd e2 f2 | g2 e2 d4 | z8 | z2 g2 f2 d2 | e g2 f g4 | c2 f2 e4 | d2 G3 GcB | %16
w: te qui|vou- loit sca- voir le|jeu d'a- mours,||qui vou- loit|sca- * * voir|le jeu d'a-|mours, ung jour qu'el- l'es-|
 cd e2 e2 z2 | z4 z2 GG | cBcc A4 | B3 B ed e2- | eA a4 gf | ef g4 f2 | g2 gg g2 f2 | e2 a3 g g2- | %24
w: toit seul- let- te,|ung jour|qu'el- l'es- toit seul- let-|te, qu'el- l'es- * toit|_ seul- let- * *||te, je luy en a-|pris deux _ ou|
 g2 f2 gccd | e2 f2 e2 d2 | ceef g2 a2 | g2 g2 e2 z e | ef g4 e2 | f2 f2 e2 e2 | c2 d2 e2 z e | %31
w: _ trois tours, a- pres a-|voir sen- ti le|gout, a- pres a- voir sen-|ti le gout, el-|le m'a dict en|soubz- ri- ant, en|soubz- ri- ant, le|
 e2 e2 A2 a2 | a2 a2 g4 | z2 g2 g2 f2 | e2 e2 d2 d2 | e4 z4 | cdef de f2 | e2 z4 cd | ef g2 a2 f2 | %39
w: pre- mier coup, le|pre- mier coup|me sem- ble|lourt, me sem- ble|lourt,|mais la fin me sem- ble fri-|ant, mais le|fin me sem- ble _|
 g4 e4 | z4 cdef | de f2 e2 z2 | z2 cd ef g2 | a2 f2 g4 | e8 |] %45
w: fri- ant,|mais la fin me|sem- ble fri- ant,|mais la fin me sem-|ble _ fri-|ant.|
V:3
 z8 | z8 | z8 | z4 G3 G | A2 c2 G2 B2 | A4 G4 | c3 c d3 e | fedc d4 | c2 A2 G4 | z8 | z2 g2 f2 fd | %11
w: |||Il es-|toit u- ne fil-|let- te,|il es- toit u-|ne _ _ _ fil-|let- * te||qui vou- loit sca-|
 e2 f2 g2 e2 | d4 z2 f2 | e2 ec d2 e2 | f2 d3 c c2- | c2 B2 c2 z2 | G3 G cBcd | e2 f2 d4 | %18
w: voir le jeu d'a-|mours, qui|vou- loit sca- voir le|jeu d'a- * *|* * mours,|ung jour qu'el- l'es- toit seul-|let- * te,|
 z2 GG cBcd | e2 G3 G cB | c2 z f f2 e2 | ed cB c4 | d2 ee d2 c2 | BA f3 e dc | d2 z2 G2 GA | %25
w: ung jour qu'el- l'es- toit seu-|let- te, seul- let- *|te, qu'el- l'es- toit|seul- * * * let-|te, je luy en a-|pris deux ou _ trois _|tours, a- pres a-|
 B2 c2 c2 B2 | cccc d2 f2 | e2 d2 c4 | G2 GA B2 c2 | A2 B2 c3 B | G2 A2 B4 | A4 z2 c2 | %32
w: voir sen- ti le|gout,- a- pres a- voir sen-|ti le gout,|el- le m'a dict en|soubz- ri- * *||ant, le|
 c2 c2 B3 B | B2 B2 d3 c | BA c4 B2 | c2 z2 GABc | AB c2 G2 z2 | cdef de f2 | ecde fe dc | %39
w: pre- mier coup,- le|pre- mier coup me|sem- * * ble|lourt mais la fin me|sem- ble fri- ant,|mais la fin me sem- ble fri-|ant, mais la fin me sem- ble _|
 d4 c2 z2 | GABc AB c2 | G2 z2 cdef | de f2 ecde | fe dc d4 | c8 |] %45
w: fri- ant,|mais la fin me sem- ble fri-|ant, mais la fin me|sem- ble fri- ant, mais la fin|me sem ble _ fri-|ant.|
V:4
 z8 | z8 | z4 D,3 D, | E,2 G,2 C,2 E,2 | D,2 C,D, E,F, G,2- | G,2 F,2 G,2 G,G, | A,2 C2 G,2 B,2 | %7
w: ||Il es-|toit u- ne fil-|let- * * * * *|* * te, il es-|toit u- ne fil-|
 A,4 G,4 | z2 C2 B,2 B,G, | A,3 B, C2 A,2 | G,4 z4 | z4 z2 C2 | B,2 B,G, A,2 _B,2 | %13
w: let- te|qui vou- loit sca-|voir le jeu d'a-|mours,|qui|vou- loit sca- voir le|
 C2 A,2 G,2 G,2 | F,2 F,D, E,2 F,2 | G,2 G,2 C,4- | C,4 z2 C,2- | C,C,F,E, F,2 G,2 | %18
w: jeu d'a- mours, qui|vou- loit sca- voir le|jeu d'a- mours,|_ ung|_ jour qu'el- l'es- toit seul-|
 A,G, F,E, F,4 | E,2 z2 C,4 | C,2 F,E, F,G,A,B, | CB,A,G, A,4 | G,2 C,C, G,2 A,2 | %23
w: let- * * * *|te, ung|jour qu'el- l'es- toit _ _ _|seul _ _ _ let-|te; je luy en a-|
 E,2 D,2 F,2 G,2 | D,2 z2 E,2 E,F, | G,2 A,2 G,2 G,2 |"^#" C,2 CC/C/ G,2 F,2 | G,2 G,2 C,4 | z8 | %29
w: pris deux ou trois|tours, a- pres a-|voir sen- ti le|gout, a- pres a- voir sen-|ti le gout,||
 z4 C,2 C,D, | E,2 F,2 E,2 E,2 | A,4 z2 A,2 | A,2 A,2 E,4 | G,4 G,2 D,2 | E,3 F, G,4 | %35
w: el- le m'a|dict en soubz- ri-|ant, le|pre- mier coup|me sem- ble|lourt, _ _|
 z2 C,D, E,F,D,E, | F,2 C,2 z4 | z2 G,A, B,CA,B, | C2 G,2 F,2 A,2 | G,4 z2 C,D, | %40
w: mais la fin me sem- ble|fri- ant,|mais la fin me sem- ble|fri- * * *|ant, mais la|
 E,F,D,E, F,2 C,2 | z4 z2 G,A, | B,CA,B, C2 G,2 | F,2 A,2 G,4 | C,8 |] %45
w: fin me sem- ble fri- ant,|mais la|fin me sem- ble fri- *||ant.|

